assets/icons/linkedinGray.svg

<svg fill="none" height="25" viewBox="0 0 24 25" width="24" xmlns="http://www.w3.org/2000/svg"><path d="m0 1.92213c0-.949505.789-1.719005 1.7625-1.719005h20.475c.9735 0 1.7625.7695 1.7625 1.719005v20.56197c0 .9495-.789 1.719-1.7625 1.719h-20.475c-.9735 0-1.7625-.7695-1.7625-1.719zm7.4145 18.37197v-10.83748h-3.6015v10.83748zm-1.8-12.31797c1.2555 0 2.037-.83101 2.037-1.872-.0225-1.0635-.78-1.872-2.013-1.872s-2.0385.81-2.0385 1.872c0 1.04099.7815 1.872 1.9905 1.872zm7.362 12.31797v-6.0525c0-.324.024-.648.12-.879.2595-.6465.852-1.317 1.848-1.317 1.3035 0 1.824.993 1.824 2.451v5.7975h3.6015v-6.216c0-3.33-1.776-4.87798-4.146-4.87798-1.911 0-2.7675 1.04998-3.2475 1.78948v.0375h-.024c.008-.0125.016-.025.024-.0375v-1.53298h-3.6c.045 1.01698 0 10.83748 0 10.83748z" fill="#888"/></svg>

<svg width="24" height="25" viewBox="0 0 24 25" fill="none" xmlns="http://www.w3.org/2000/svg">
<path d="M0 1.92213C0 0.972625 0.789 0.203125 1.7625 0.203125H22.2375C23.211 0.203125 24 0.972625 24 1.92213V22.4841C24 23.4336 23.211 24.2031 22.2375 24.2031H1.7625C0.789 24.2031 0 23.4336 0 22.4841V1.92213ZM7.4145 20.2941V9.45662H3.813V20.2941H7.4145ZM5.6145 7.97613C6.87 7.97613 7.6515 7.14512 7.6515 6.10413C7.629 5.04063 6.8715 4.23213 5.6385 4.23213C4.4055 4.23213 3.6 5.04213 3.6 6.10413C3.6 7.14512 4.3815 7.97613 5.5905 7.97613H5.6145ZM12.9765 20.2941V14.2416C12.9765 13.9176 13.0005 13.5936 13.0965 13.3626C13.356 12.7161 13.9485 12.0456 14.9445 12.0456C16.248 12.0456 16.7685 13.0386 16.7685 14.4966V20.2941H20.37V14.0781C20.37 10.7481 18.594 9.20012 16.224 9.20012C14.313 9.20012 13.4565 10.2501 12.9765 10.9896V11.0271H12.9525C12.9605 11.0146 12.9685 11.0021 12.9765 10.9896V9.45662H9.3765C9.4215 10.4736 9.3765 20.2941 9.3765 20.2941H12.9765Z" fill="#888888"/>
</svg>
